icons/evolvere-flat-vivid-sunken-dark-fallback/places/64/folder-open.svg

<svg xmlns="http://www.w3.org/2000/svg" viewBox="0 0 64 64"><defs><linearGradient id="0" gradientUnits="userSpaceOnUse" y1="64" x2="0" y2="32.919"><stop stop-color="#c1853b"/><stop offset=".082" stop-color="#d89b45"/><stop offset="1" stop-color="#e7a953"/></linearGradient></defs><path d="m3 6v58h57l4-4v-59l-1-1h-26l-5 5h-28" fill="#e09122" color="#000"/><path d="m58 13v51h2l4-4v-59l-1-1v18z" fill="#7a4800" fill-opacity=".272"/><path d="m7 13h51v31h-51z" fill="#e1e1e1"/><path d="m0 32.615v30.769l1 .615h59l1-.615v-27.692l-1-.615h-26l-5-3.077h-28z" fill="url(#0)" color="#000"/><path d="m1 32l-1 .625v1.375 29.375l1 .625h29 30l1-.625v-27.688l-1-.625h-26l-5-3.063h-28" fill="#be7a1b"/><path d="m1 32l-1 .625v1l1-.625h28l5 3.063h26l1 .625v-1l-1-.625h-26l-5-3.063h-28" fill="#ffe083" fill-opacity=".584" color="#000"/></svg>

<?xml version="1.0" encoding="UTF-8" standalone="no"?>
<!-- Created with Inkscape (http://www.inkscape.org/) -->

<svg
   xmlns:dc="http://purl.org/dc/elements/1.1/"
   xmlns:cc="http://creativecommons.org/ns#"
   xmlns:rdf="http://www.w3.org/1999/02/22-rdf-syntax-ns#"
   xmlns:svg="http://www.w3.org/2000/svg"
   xmlns="http://www.w3.org/2000/svg"
   xmlns:xlink="http://www.w3.org/1999/xlink"
   xmlns:sodipodi="http://sodipodi.sourceforge.net/DTD/sodipodi-0.dtd"
   xmlns:inkscape="http://www.inkscape.org/namespaces/inkscape"
   id="svg13094"
   height="64"
   width="64"
   version="1.1"
   inkscape:version="0.48.4 r9939"
   sodipodi:docname="folder-open.svg"
   inkscape:export-filename="folder.png"
   inkscape:export-xdpi="90"
   inkscape:export-ydpi="90">
  <sodipodi:namedview
     pagecolor="#ffffff"
     bordercolor="#000000"
     borderopacity="1"
     objecttolerance="10"
     gridtolerance="10"
     guidetolerance="10"
     inkscape:pageopacity="0"
     inkscape:pageshadow="2"
     inkscape:window-width="1920"
     inkscape:window-height="1022"
     id="namedview46"
     showgrid="true"
     inkscape:snap-bbox="true"
     inkscape:bbox-paths="true"
     inkscape:bbox-nodes="true"
     inkscape:snap-bbox-edge-midpoints="true"
     inkscape:snap-bbox-midpoints="true"
     inkscape:snap-nodes="true"
     inkscape:object-paths="true"
     inkscape:snap-intersection-paths="true"
     inkscape:object-nodes="true"
     inkscape:snap-smooth-nodes="true"
     inkscape:snap-midpoints="true"
     inkscape:snap-object-midpoints="true"
     inkscape:snap-center="true"
     fit-margin-top="0"
     fit-margin-left="0"
     fit-margin-right="0"
     fit-margin-bottom="0"
     inkscape:zoom="10.429825"
     inkscape:cx="34.020104"
     inkscape:cy="32.026001"
     inkscape:window-x="-5"
     inkscape:window-y="23"
     inkscape:window-maximized="1"
     inkscape:current-layer="svg13094"
     showguides="true"
     inkscape:guide-bbox="true"
     inkscape:snap-page="true"
     inkscape:showpageshadow="false">
    <inkscape:grid
       type="xygrid"
       id="grid3023"
       empspacing="5"
       visible="true"
       enabled="true"
       snapvisiblegridlinesonly="true"
       originx="-80px"
       originy="-75px" />
  </sodipodi:namedview>
  <defs
     id="defs11">
    <linearGradient
       inkscape:collect="always"
       xlink:href="#linearGradient3969-2"
       id="linearGradient3882"
       gradientUnits="userSpaceOnUse"
       x1="29.875"
       y1="64.082283"
       x2="29.875"
       y2="33.001034"
       gradientTransform="translate(0.625,-0.082283)" />
    <linearGradient
       id="linearGradient3969-2">
      <stop
         style="stop-color:#c1853b;stop-opacity:1"
         offset="0"
         id="stop3971-2" />
      <stop
         id="stop3977-6"
         offset="0.08245245"
         style="stop-color:#d89b45;stop-opacity:1" />
      <stop
         style="stop-color:#e7a953;stop-opacity:1"
         offset="1"
         id="stop3973-3" />
    </linearGradient>
  </defs>
  <metadata
     id="metadata13099">
    <rdf:RDF>
      <cc:Work
         rdf:about="">
        <dc:format>image/svg+xml</dc:format>
        <dc:type
           rdf:resource="http://purl.org/dc/dcmitype/StillImage" />
        <dc:title />
      </cc:Work>
    </rdf:RDF>
  </metadata>
  <path
     sodipodi:nodetypes="cccccccccc"
     inkscape:connector-curvature="0"
     id="path3833"
     d="m 3,6 -10e-8,58.000001 L 60,64 64,60 64,1 63,0 37,0 32,4.9999999 4,5 Z"
     style="color:#000000;display:inline;overflow:visible;visibility:visible;fill:#e09122;fill-opacity:1;fill-rule:nonzero;stroke:none;marker:none;enable-background:accumulate" />
  <path
     style="opacity:1;fill:#7a4800;fill-opacity:0.27240146;stroke:none;stroke-width:1;stroke-linecap:butt;stroke-linejoin:miter;stroke-miterlimit:4;stroke-dasharray:none;stroke-dashoffset:0;stroke-opacity:1;marker:none"
     inkscape:connector-curvature="0"
     d="m 58,13 0,51 2,0 4,-4 0,-59 -1,-1 0,18 z"
     id="path3802"
     sodipodi:nodetypes="cccccccc" />
  <path
     style="fill:#e1e1e1;fill-opacity:1;fill-rule:nonzero"
     inkscape:connector-curvature="0"
     id="path3920"
     d="m 7,13 51,0 0,31 -51,0 z"
     sodipodi:nodetypes="ccccc" />
  <path
     inkscape:export-ydpi="90"
     inkscape:export-xdpi="90"
     sodipodi:nodetypes="ccccccccccc"
     style="color:#000000;display:inline;overflow:visible;visibility:visible;fill:url(#linearGradient3882);fill-opacity:1;fill-rule:nonzero;stroke-width:1;stroke-linecap:butt;stroke-linejoin:miter;stroke-miterlimit:4;stroke-dasharray:none;stroke-dashoffset:0;stroke-opacity:1;marker:none;enable-background:accumulate"
     inkscape:connector-curvature="0"
     d="M 0,32.615384 0,63.384615 1,64 l 59,0 1,-0.615385 0,-27.692308 -1,-0.615384 -26,0 L 29,32 l -28,-1e-6 z"
     id="path3880" />
  <path
     inkscape:connector-curvature="0"
     id="path3043"
     d="M 1,32 0,32.625 0,34 0,63.375 1,64 l 29,0 30,0 1,-0.625 0,-27.6875 -1,-0.625 -26,0 L 29,32 1,32 Z"
     style="fill:#be7a1b;fill-opacity:1;fill-rule:nonzero" />
  <path
     inkscape:connector-curvature="0"
     id="path3916"
     d="m 1,32 -1,0.625 0,1 1,-0.625 28,0 5,3.0625 26,0 1,0.625 0,-1 -1,-0.625 -26,0 L 29,32 1,32 Z"
     style="color:#000000;display:inline;overflow:visible;visibility:visible;fill:#ffe083;fill-opacity:0.58422941;fill-rule:nonzero;stroke:none;stroke-width:1;stroke-linecap:butt;stroke-linejoin:miter;stroke-miterlimit:4;stroke-dasharray:none;stroke-dashoffset:0;stroke-opacity:1;marker:none;enable-background:accumulate" />
</svg>
